resources/haticons/SVG/crop1.svg

<!-- Generated by IcoMoon.io -->
<svg version="1.1" xmlns="http://www.w3.org/2000/svg" width="24" height="24" viewBox="0 0 24 24">
<title>crop1</title>
<path d="M6.984 17.016h16.031v1.969h-4.031v4.031h-1.969v-4.031h-10.031q-0.797 0-1.383-0.586t-0.586-1.383v-10.031h-4.031v-1.969h4.031v-4.031h1.969v16.031zM17.016 15v-8.016h-8.016v-1.969h8.016q0.797 0 1.383 0.586t0.586 1.383v8.016h-1.969z"></path>
</svg>

<svg xmlns="http://www.w3.org/2000/svg" width="24" height="24"><path d="M6.984 17.016h16.031v1.969h-4.031v4.031h-1.969v-4.031H6.984q-.797 0-1.383-.586t-.586-1.383V6.985H.984V5.016h4.031V.985h1.969v16.031zM17.016 15V6.984H9V5.015h8.016q.797 0 1.383.586t.586 1.383V15h-1.969z"/></svg>
